Simply white circles/scalable/apps/org.gnome.PowerStats.svg

<svg xmlns="http://www.w3.org/2000/svg" width="48" height="48" version="1">
  <defs>
    <linearGradient id="a">
      <stop offset="0"/>
      <stop offset="1" stop-opacity="0"/>
    </linearGradient>
  </defs>
  <g fill="none" stroke="#e6e6e6">
    <path stroke-width=".98225111" d="M6.712125 37.341918l7.251057-11.314747 6.035579 5.201253 7.963479-11.72949 8.136132 4.223041 5.095987-15.7071573"/>
    <path d="M6.7175 37.338l7.2363-4.5238 5.9212 3.3338 7.9485-9.2916 8.0622 3.057 5.3033-3.3588"/>
  </g>
  <path fill="#e6e6e6" d="M24.001953.23046875A23.770509 23.770509 0 0 0 .22851562 24 23.770509 23.770509 0 0 0 24.001953 47.769531 23.770509 23.770509 0 0 0 47.771484 24 23.770509 23.770509 0 0 0 24.001953.23046875zm-.070312 3.53906245A20.436071 20.436071 0 0 1 44.367188 24.203125a20.436071 20.436071 0 0 1-20.435547 20.435547A20.436071 20.436071 0 0 1 3.4941406 24.203125 20.436071 20.436071 0 0 1 23.931641 3.7695312zM28.087891 17.8125a1.9686875 2.00005 0 0 0-2.025391 2 1.9686875 2.00005 0 1 0 3.9375 0 1.9686875 2.00005 0 0 0-1.912109-2zm7.9375 3.189453a1.968688 2.0000505 0 0 0-2.025391 2 1.968688 2.0000505 0 1 0 3.9375 0 1.968688 2.0000505 0 0 0-1.912109-2zm-22 3A1.9686875 2.00005 0 0 0 12 26a1.9686875 2.00005 0 1 0 3.9375 0 1.9686875 2.00005 0 0 0-1.912109-1.998047zm14 1A1.968688 2.0000505 0 0 0 26 27a1.968688 2.0000505 0 1 0 3.9375 0 1.968688 2.0000505 0 0 0-1.912109-1.998047zm8 3A1.968688 2.0000505 0 0 0 34 30a1.968688 2.0000505 0 1 0 3.9375 0 1.968688 2.0000505 0 0 0-1.912109-1.998047zm-16 1A1.9686875 2.00005 0 0 0 18 31a1.9686875 2.00005 0 1 0 3.9375 0 1.9686875 2.00005 0 0 0-1.912109-1.998047zm-6 2A1.9686875 2.00005 0 0 0 12 33a1.9686875 2.00005 0 1 0 3.9375 0 1.9686875 2.00005 0 0 0-1.912109-1.998047zm6 3A1.9686875 2.00005 0 0 0 18 36a1.9686875 2.00005 0 1 0 3.9375 0 1.9686875 2.00005 0 0 0-1.912109-1.998047z" color="#000"/>
</svg>

<?xml version="1.0" encoding="UTF-8" standalone="no"?>
<!-- Created with Inkscape (http://www.inkscape.org/) -->

<svg
   xmlns:dc="http://purl.org/dc/elements/1.1/"
   xmlns:cc="http://creativecommons.org/ns#"
   xmlns:rdf="http://www.w3.org/1999/02/22-rdf-syntax-ns#"
   xmlns:svg="http://www.w3.org/2000/svg"
   xmlns="http://www.w3.org/2000/svg"
   xmlns:xlink="http://www.w3.org/1999/xlink"
   xmlns:sodipodi="http://sodipodi.sourceforge.net/DTD/sodipodi-0.dtd"
   xmlns:inkscape="http://www.inkscape.org/namespaces/inkscape"
   id="svg4292"
   width="48"
   height="48"
   version="1.0"
   sodipodi:docname="org.gnome.PowerStats.svg"
   inkscape:version="0.92.3 (2405546, 2018-03-11)">
  <metadata
     id="metadata48">
    <rdf:RDF>
      <cc:Work
         rdf:about="">
        <dc:format>image/svg+xml</dc:format>
        <dc:type
           rdf:resource="http://purl.org/dc/dcmitype/StillImage" />
        <dc:title></dc:title>
      </cc:Work>
    </rdf:RDF>
  </metadata>
  <sodipodi:namedview
     pagecolor="#ffffff"
     bordercolor="#666666"
     borderopacity="1"
     objecttolerance="10"
     gridtolerance="10"
     guidetolerance="10"
     inkscape:pageopacity="0"
     inkscape:pageshadow="2"
     inkscape:window-width="1366"
     inkscape:window-height="719"
     id="namedview46"
     showgrid="false"
     inkscape:zoom="7.8371002"
     inkscape:cx="24"
     inkscape:cy="24"
     inkscape:window-x="0"
     inkscape:window-y="25"
     inkscape:window-maximized="1"
     inkscape:current-layer="svg4292" />
  <defs
     id="defs4294">
    <radialGradient
       id="radialGradient5031"
       cx="605.71"
       cy="486.65"
       r="117.14"
       gradientTransform="matrix(-2.7744,0,0,1.9697,112.76,-872.89)"
       gradientUnits="userSpaceOnUse"
       xlink:href="#linearGradient5060" />
    <linearGradient
       id="linearGradient5060">
      <stop
         id="stop5062"
         offset="0" />
      <stop
         id="stop5064"
         style="stop-opacity:0"
         offset="1" />
    </linearGradient>
    <radialGradient
       id="radialGradient5029"
       cx="605.71"
       cy="486.65"
       r="117.14"
       gradientTransform="matrix(2.7744,0,0,1.9697,-1891.6,-872.89)"
       gradientUnits="userSpaceOnUse"
       xlink:href="#linearGradient5060" />
    <linearGradient
       id="linearGradient5027"
       x1="302.86"
       x2="302.86"
       y1="366.65"
       y2="609.51"
       gradientTransform="matrix(2.7744,0,0,1.9697,-1892.2,-872.89)"
       gradientUnits="userSpaceOnUse">
      <stop
         id="stop5050"
         style="stop-opacity:0"
         offset="0" />
      <stop
         id="stop5056"
         offset=".5" />
      <stop
         id="stop5052"
         style="stop-opacity:0"
         offset="1" />
    </linearGradient>
    <linearGradient
       id="linearGradient5397"
       x1="27"
       x2="27.25"
       y1="40"
       y2="12.375"
       gradientTransform="translate(0,-2)"
       gradientUnits="userSpaceOnUse">
      <stop
         id="stop5393"
         style="stop-color:#d3d7cf"
         offset="0" />
      <stop
         id="stop5395"
         style="stop-color:#e0e3dd"
         offset="1" />
    </linearGradient>
    <linearGradient
       id="linearGradient5407"
       x1="4"
       x2="8.125"
       y1="25"
       y2="62.875"
       gradientTransform="translate(0,-2)"
       gradientUnits="userSpaceOnUse">
      <stop
         id="stop5403"
         style="stop-color:#fff"
         offset="0" />
      <stop
         id="stop5405"
         style="stop-color:#fff;stop-opacity:0"
         offset="1" />
    </linearGradient>
    <linearGradient
       id="linearGradient5419"
       x1="37.33"
       x2="41.689"
       y1="24.135"
       y2="24.135"
       gradientTransform="translate(20,-2)"
       gradientUnits="userSpaceOnUse">
      <stop
         id="stop5415"
         style="stop-color:#204a87"
         offset="0" />
      <stop
         id="stop5417"
         style="stop-color:#204a87;stop-opacity:0"
         offset="1" />
    </linearGradient>
    <linearGradient
       id="linearGradient5427"
       x1="37.33"
       x2="40.628"
       y1="33.946"
       y2="33.946"
       gradientTransform="translate(20,-2)"
       gradientUnits="userSpaceOnUse">
      <stop
         id="stop5423"
         style="stop-color:#c00"
         offset="0" />
      <stop
         id="stop5425"
         style="stop-color:#c00;stop-opacity:0"
         offset="1" />
    </linearGradient>
    <radialGradient
       id="radialGradient5453"
       cx="21.92"
       cy="24.842"
       r="14.319"
       gradientUnits="userSpaceOnUse"
       gradientTransform="matrix(1.2346,0,0,1.2346,-3.7276,-6.7665)">
      <stop
         id="stop5449"
         style="stop-color:#fff"
         offset="0" />
      <stop
         id="stop5451"
         style="stop-color:#fff;stop-opacity:0"
         offset="1" />
    </radialGradient>
  </defs>
  <g
     id="g860"
     style="stroke:#e6e6e6"
     transform="translate(40)">
    <path
       id="path5409"
       d="m -33.287875,37.341918 7.251057,-11.314747 6.035579,5.201253 7.963479,-11.72949 8.136132,4.223041 5.095987,-15.7071573"
       style="fill:none;stroke:#e6e6e6;stroke-width:0.98225111px;stroke-opacity:1"
       inkscape:connector-curvature="0" />
    <path
       id="path5411"
       d="m -33.2825,37.338 7.2363,-4.5238 5.9212,3.3338 7.9485,-9.2916 8.0622,3.057 5.3033,-3.3588"
       style="fill:none;stroke:#e6e6e6;stroke-width:1px;stroke-opacity:1"
       inkscape:connector-curvature="0" />
  </g>
  <path
     style="color:#000000;fill:#e6e6e6;stroke:none;stroke-width:1.22111189"
     d="M 24.001953 0.23046875 A 23.770509 23.770509 0 0 0 0.22851562 24 A 23.770509 23.770509 0 0 0 24.001953 47.769531 A 23.770509 23.770509 0 0 0 47.771484 24 A 23.770509 23.770509 0 0 0 24.001953 0.23046875 z M 23.931641 3.7695312 A 20.436071 20.436071 0 0 1 44.367188 24.203125 A 20.436071 20.436071 0 0 1 23.931641 44.638672 A 20.436071 20.436071 0 0 1 3.4941406 24.203125 A 20.436071 20.436071 0 0 1 23.931641 3.7695312 z M 28.087891 17.8125 A 1.9686875 2.00005 0 0 0 26.0625 19.8125 A 1.9686875 2.00005 0 1 0 30 19.8125 A 1.9686875 2.00005 0 0 0 28.087891 17.8125 z M 36.025391 21.001953 A 1.968688 2.0000505 0 0 0 34 23.001953 A 1.968688 2.0000505 0 1 0 37.9375 23.001953 A 1.968688 2.0000505 0 0 0 36.025391 21.001953 z M 14.025391 24.001953 A 1.9686875 2.00005 0 0 0 12 26 A 1.9686875 2.00005 0 1 0 15.9375 26 A 1.9686875 2.00005 0 0 0 14.025391 24.001953 z M 28.025391 25.001953 A 1.968688 2.0000505 0 0 0 26 27 A 1.968688 2.0000505 0 1 0 29.9375 27 A 1.968688 2.0000505 0 0 0 28.025391 25.001953 z M 36.025391 28.001953 A 1.968688 2.0000505 0 0 0 34 30 A 1.968688 2.0000505 0 1 0 37.9375 30 A 1.968688 2.0000505 0 0 0 36.025391 28.001953 z M 20.025391 29.001953 A 1.9686875 2.00005 0 0 0 18 31 A 1.9686875 2.00005 0 1 0 21.9375 31 A 1.9686875 2.00005 0 0 0 20.025391 29.001953 z M 14.025391 31.001953 A 1.9686875 2.00005 0 0 0 12 33 A 1.9686875 2.00005 0 1 0 15.9375 33 A 1.9686875 2.00005 0 0 0 14.025391 31.001953 z M 20.025391 34.001953 A 1.9686875 2.00005 0 0 0 18 36 A 1.9686875 2.00005 0 1 0 21.9375 36 A 1.9686875 2.00005 0 0 0 20.025391 34.001953 z "
     id="path5429" />
</svg>
